X:1
T:Lord Blantyre’s Strathspey
L:1/8
M:2/2
I:linebreak $
K:A
V:1 treble 
V:1
 e2 | (c/d/e) (A>e) c<e a2 | (f<d) =g2 (B<G)G>B | (c/d/e) (A>e) c<e(a>f) | (g>d)B>e c<AA :| e |$ %6
 (c/d/e) a2 .a/.g/.f/.e/ a2 | (B<d) =g2 (BG)GB | (c/d/e) a2 (g<b) a2 | (e>a)(g>b) a<AA>e | %10
 (c/d/e) a2 .a/.g/.f/.e/ a2 |$ (B<d) =g2 (BG)GB | (c>e) (c>f) (e>g) (f>a) | %13
 (g<e) (a>e) (cA)A!D.C.! || %14
